X: 11111
M: 6/8
L: 1/8
K: Bb
V: 1 staves=3
!ff!F |\
c2c   c=Bc | A2A AGA | Bdc BAG | F2z z2 :|
|: !pp!F |\
|: !ff!d/e/ |\
f3  =e3 | f3  z2c | Bdc BAG | F2F F2(c/d/) |\
e2d edc | Bdc BAG | F2F FGA | B2z z2 :|
V: 2
!ff!F |\
|: !pp!z |\
[D2B,2][DB,] [D2B,2][DB,] | [D2B,2][DB,] [D2B,2][DB,] |\
[E2C2][EC]   [E2C2][EC]   | [D2B,2][DB,] [D2B,2][DB,] |\
[D2B,2][DB,] [D2B,2][DB,] | [D2B,2][DB,] [D2B,2][DB,] |\
[E2C2][EC]   [E2C2][EC]   | D2z z2 :|
|: !ff!(B/c/) |\
d3 ^c3 | d3 z2F | F2E DFB, | A,2A, A,2z |\
V: 3 clef=bass middle=d
!ff!z |\
f2z f2z | f2z f2z | g2z c2z | f2z z2 :|
|: !pp!z |\
|: !ff!z |\
bbb bbb | b2a gfe | d2A B2e | f2f f2z |\
f2f f2f | B2c d2e | f2f f2f | B2z z2 :|


